X: 17
T: THE HUMOURS OF BANDON
R: jig
Z: 2006 John Chambers <jc@trillian.mit.edu>
B: "Rinnci na h-\'Eireann" Elizabeth Burchenal, ed. G.Schirmer (1925) p.64
M: 6/8
L: 1/8
%Q: 3/8=126
K: Am
E \
| "Am"EAA A>GA | "G"B2A G>AB | "Am"c2B ABc | "G"B>AG g>^fg \
| "Am"e2d c>de | "G"dBA Ged | "Am"c>BA G>ED | "Am"EA"Dm"A "Am"A2 :|
|: e \
| "Am"e^f^g (a2c') | "G"b2((3c'/b/a/) (g2b) | "Am"a2((3b/a/g/) (e2^f) | "G"g2((3a/g/e/) (d2=f) \
| "Am"e2((3f/e/d/) cde | "G"dBA Ged | "Am"c>BA G<ED | "Am"(EA)"Dm"A "Am"A2 :|

%%sep 2 1 500

